!!!COM: Corelli, Arcangelo
!!!OTL: 
!!!ONM: Opus 5, No. 3
!!!OMV: 2
!!!CDT: 1653/2/17/-1713/1/8/
!!!OCY: Italia
**kern	**kern	**kern	**kern
*clefC	*clefG	*clefG	*clefG
*k[]	*k[]	*k[]	*k[]
*C:	*C:	*C:	*C:
*M4/4	*M4/4	*M4/4	*M4/4
=1	=1	=1	=1
4C	1r	1r	8r
.	.	.	8gg
2c	.	.	8aa
.	.	.	8ee
.	.	.	8ff
.	.	.	8dd
[4B	.	.	8gg
.	.	.	8g
=2	=2	=2	=2
4B]	1r	1r	8cc
.	.	.	16dd
.	.	.	16ee
4A	.	.	8ff
.	.	.	8a
8G	.	.	8b
8E	.	.	4cc
8F	.	.	.
8G	.	.	8b
=3	=3	=3	=3
4C	2r	1r	16cc
.	.	.	16b
.	.	.	16cc
.	.	.	16dd
8r	.	.	16ee
.	.	.	16dd
8c	.	.	16ee
.	.	.	16ff#
4B	8r	.	8gg
.	8dd	.	8gg
8r	8ee	.	8gg
8G	8b	.	8gg
=4	=4	=4	=4
4A	8cc	1r	8gg
.	8a	.	8gg
8r	8dd	.	4ff#
8D	8d	.	.
4E	4.r	.	8g
.	.	.	16a
.	.	.	16b
8r	.	.	8cc
8C	8e	.	8cc
=5	=5	=5	=5
8D	8f#	4r	8cc
8GG	8g	.	8b
8D	4d	8g	4a
8DD	.	8f#	.
4GG	4.r	2r	8G
.	.	.	16a
.	.	.	16b
4r	.	.	8cc
.	8e	.	8cc
=6	=6	=6	=6
1r	4f	1r	8a
.	.	.	8dd
.	4g	.	8b
.	.	.	8ee
.	4a	.	8cc
.	.	.	8ff
.	4d	.	8b
.	.	.	8gg
=7	=7	=7	=7
8r	4e	1r	4cc
8G	.	.	.
8A	2.r	.	8r
8E	.	.	8g
8F	.	.	16a
.	.	.	16cc
8D	.	.	16b
.	.	.	16a
8G	.	.	16b
.	.	.	16dd
8GG	.	.	16cc
.	.	.	16b
=8	=8	=8	=8
8C	1r	1r	16cc
.	.	.	16ee
16D	.	.	16ff
16E	.	.	16gg
4.F	.	.	16aa
.	.	.	16a
.	.	.	16dd
.	.	.	16cc
.	.	.	16b
.	.	.	16g
16E	.	.	16cc
16F	.	.	16e
8G	.	.	16d
.	.	.	16cc
8GG	.	.	16b
.	.	.	16d
=9	=9	=9	=9
4.C	2r	1r	8c
.	.	.	8e
.	.	.	8a
8C	.	.	8A
4.BB	4B	.	8d
.	.	.	16e
.	.	.	16f#
.	8r	.	8g
8BB	8B	.	8g
=10	=10	=10	=10
8C	4A	1r	4g
8AA	.	.	.
8D	4A	.	4f#
8DD	.	.	.
4GG	4G	.	8g
.	.	.	16a
.	.	.	16b
8r	8r	.	8cc
8C	8e	.	8cc
=11	=11	=11	=11
4F	4f	1r	8a
.	.	.	16b
.	.	.	16cc
8r	8r	.	8dd
8D	8f#	.	8dd
4G	4g	.	8b
.	.	.	16cc
.	.	.	16dd
8r	8r	.	8ee
8E	8g#	.	8ee
=12	=12	=12	=12
4A	4a	1r	8cc
.	.	.	16dd
.	.	.	16ee
8r	2.r	.	16ff
.	.	.	16ee
8A	.	.	16dd
.	.	.	16cc
4G#	.	.	16b
.	.	.	16cc
.	.	.	16dd
.	.	.	16b
4G	.	.	16ee
.	.	.	16dd
.	.	.	16cc
.	.	.	16b
=13	=13	=13	=13
4F#	1r	1r	16a
.	.	.	16b
.	.	.	16cc
.	.	.	16a
4F	.	.	16dd
.	.	.	16ee
.	.	.	16ff
.	.	.	16dd
4E	.	.	16gg#
.	.	.	16ee
.	.	.	16ff
.	.	.	16gg#
4AA	.	.	16aa
.	.	.	16cc
.	.	.	16b
.	.	.	16a
=14	=14	=14	=14
8E	1r	1r	16g#
.	.	.	16e
8C	.	.	16a
.	.	.	16A
8D	.	.	16B
.	.	.	16a
8E	.	.	16g#
.	.	.	16B
4AA	.	.	8A
.	.	.	8ee
[4A	.	.	8ff
.	.	.	8cc
=15	=15	=15	=15
4A]	1r	1r	8dd
.	.	.	8b
2G	.	.	8ee
.	.	.	8e
.	.	.	8a
.	.	.	16b
.	.	.	16cc
[4F	.	.	8dd
.	.	.	8d
=16	=16	=16	=16
4F]	4.r	1r	8g
.	.	.	8b
4E	.	.	8cc
.	8e	.	8cc
4D	8f	.	8cc
.	8d	.	8cc
8r	8g	.	4b
8G	8G	.	.
=17	=17	=17	=17
8C	4c	1r	4e 4b
16D	.	.	.
16E	.	.	.
8F	4c	.	4a
8FF	.	.	.
8BB	4B	.	4dd 4a
16C	.	.	.
16D	.	.	.
8E	4B	.	4g
8EE	.	.	.
=18	=18	=18	=18
8AA	4A	1r	4cc 4g
16BB	.	.	.
16C	.	.	.
8D	4A	.	4f
8DD	.	.	.
8GG	4G	.	4f 4b
16G	.	.	.
16F	.	.	.
8E	8r	.	8r
8C	8e	.	8cc
=19	=19	=19	=19
8F	4f	1r	8a
8G	.	.	8b
8A	4e	.	[4cc
8E	.	.	.
8F	4d	.	4cc]
8D	.	.	.
8G	4d	.	4b
8GG	.	.	.
=20	=20	=20	=20
8C	4c	1r	4e 4cc
8D	.	.	.
8E	8r	.	8r
8C	8ee	.	8gg
8F	4f	.	8a
8G	.	.	8b
8A	4e	.	[4cc
8E	.	.	.
=21	=21	=21	=21
8F	2d	1r	4cc]
8D	.	.	.
8G	.	.	4b
8GG	.	.	.
4C	16cc	.	16ee
.	16dd	.	16ff
.	16cc	.	16ee
.	16dd	.	16ff
4r	16ee	.	16gg
.	16dd	.	16ff
.	16ee	.	16gg
.	16dd	.	16ff
=22	=22	=22	=22
4C	16cc	1r	16ee
.	16dd	.	16ff
.	16cc	.	16ee
.	16dd	.	16ff
4r	16ee	.	16gg
.	16dd	.	16ff
.	16ee	.	16gg
.	16dd	.	16ff
4AA	16cc	.	16ee
.	16dd	.	16ff
.	16cc	.	16ee
.	16dd	.	16ff
4r	16cc	.	16ee
.	16dd	.	16ff
.	16cc	.	16ee
.	16dd	.	16ff
=23	=23	=23	=23
4AA	16cc	1r	16ee
.	16dd	.	16ff
.	16cc	.	16ee
.	16dd	.	16ff
4r	16cc	.	16ee
.	16dd	.	16ff
.	16cc	.	16ee
.	16dd	.	16ff
8A	2r	.	16cc
.	.	.	16ee
8AA	.	.	16cc
.	.	.	16ee
8C	.	.	16cc
.	.	.	16aa
8AA	.	.	16cc
.	.	.	16aa
=24	=24	=24	=24
2E	1r	1r	16b
.	.	.	16aa
.	.	.	16b
.	.	.	16aa
.	.	.	16ee
.	.	.	16gg
.	.	.	16ee
.	.	.	16gg
8B	.	.	16ee
.	.	.	16ff#
8BB	.	.	16ee
.	.	.	16ff#
8D	.	.	16dd
.	.	.	16bb
8BB	.	.	16dd
.	.	.	16bb
=25	=25	=25	=25
2F#	1r	1r	16cc#
.	.	.	16bb
.	.	.	16cc#
.	.	.	16bb
.	.	.	16cc#
.	.	.	16aa
.	.	.	16cc#
.	.	.	16aa
4D#	.	.	16b
.	.	.	16aa
.	.	.	16b
.	.	.	16aa
4E	.	.	16b
.	.	.	16gg
.	.	.	16b
.	.	.	16gg
=26	=26	=26	=26
4C#	1r	1r	16g
.	.	.	16gg
.	.	.	16a
.	.	.	16gg
4D#	.	.	16a
.	.	.	16ff#
.	.	.	16a
.	.	.	16ff#
4E	.	.	16g
.	.	.	16b
.	.	.	16g
.	.	.	16b
4GG	.	.	16g
.	.	.	16ee
.	.	.	16g
.	.	.	16ee
=27	=27	=27	=27
4AA	1r	1r	16f#
.	.	.	16ee
.	.	.	16f#
.	.	.	16ee
4BB	.	.	16f#
.	.	.	16dd#
.	.	.	16f#
.	.	.	16dd#
4E	.	.	16e
.	.	.	16ee
.	.	.	16e
.	.	.	16ee
4G	.	.	16b
.	.	.	16ee
.	.	.	16b
.	.	.	16ee
=28	=28	=28	=28
4A	1r	1r	16cc
.	.	.	16ee
.	.	.	16cc
.	.	.	16ee
4B	.	.	16dd#
.	.	.	16ee
.	.	.	16dd#
.	.	.	16ee
8c	.	.	16ee
.	.	.	16ee
8B	.	.	16dd
.	.	.	16ee
8A	.	.	16cc
.	.	.	16ee
8G	.	.	16b
.	.	.	16ee
=29	=29	=29	=29
8A	2.r	1r	16cc
.	.	.	16ee
8G	.	.	16b
.	.	.	16ee
8F#	.	.	16a
.	.	.	16ee
8E	.	.	16g
.	.	.	16ee
4B	.	.	4a 4d# 4B
4E	8.G	.	4e
.	16A	.	.
=30	=30	=30	=30
2BB	4B	1r	4e
.	4B	.	4d#
2EE	2G	.	2e 2ee 2b
=31	=31	=31	=31
4C	4c	1r	8e
.	.	.	8gg
2c	8r	.	8aa
.	8cc	.	8ee
.	4dd	.	8ff
.	.	.	8ff
[4B	8r	.	8gg
.	8g	.	8b
=32	=32	=32	=32
4B]	4e	1r	8cc
.	.	.	16dd
.	.	.	16ee
4.A	2r	.	8ff
.	.	.	16dd
.	.	.	16cc
.	.	.	8b
8G	.	.	8g
8A	4e	.	[4cc
8E	.	.	.
=33	=33	=33	=33
8F	2d	1r	4cc]
8D	.	.	.
8G	.	.	[4b
8GG	.	.	.
8C	4c 4e	.	4b]
16D	.	.	.
16E	.	.	.
[4F	4c	.	4a
=34	=34	=34	=34
4F]	4B	1r	8g
.	.	.	16a
.	.	.	16b
4E	8r	.	8cc
.	8e	.	8cc
8D	8f#	.	4cc
8d	8d	.	.
8e	[4g	.	4b
8B	.	.	.
=35	=35	=35	=35
8c	4g]	1r	4a
8A	.	.	.
8d	4f#	.	4a
8D	.	.	.
4.GG	4G	.	8g
.	.	.	8b
.	8r	.	8ee
8G	8b	.	8ee
=36	=36	=36	=36
4.A	4cc	1r	8ee
.	.	.	8ee
.	8r	.	8ff
8A	8cc	.	8ff
4.B	4dd	.	8ff
.	.	.	8ff
.	8r	.	8gg
8B	8dd	.	8gg
=37	=37	=37	=37
8c	4ee	1r	8gg
8G	.	.	8gg
2c	8r	.	8aa
.	8cc	.	8aa
.	8dd	.	4ff
.	16ee	.	.
.	16ff	.	.
[4B	8gg	.	8r
.	8g	.	8b
=38	=38	=38	=38
4B]	4e	1r	8cc
.	.	.	16dd
.	.	.	16ee
2A	4r	.	8ff
.	.	.	16dd
.	.	.	16cc
.	4d	.	8b
.	.	.	16cc
.	.	.	16dd
[4G	8r	.	8ee
.	8g	.	8ee
=39	=39	=39	=39
4G]	8a	1r	4cc
.	16b	.	.
.	16cc	.	.
4F	8dd	.	2r
.	8cc	.	.
8r	8b	.	.
8G	8g	.	.
8A	4e	.	[4cc
8E	.	.	.
=40	=40	=40	=40
8F	2d	1r	4cc]
8D	.	.	.
8G	.	.	[4b
8GG	.	.	.
8C	4c 4e	.	4b]
16D	.	.	.
16E	.	.	.
8F	4c	.	4a
8FF	.	.	.
=41	=41	=41	=41
8BB	4B	1r	4dd 4a
16C	.	.	.
16D	.	.	.
8E	4B	.	4g
8EE	.	.	.
8AA	4A	.	4g 4cc
16BB	.	.	.
16C	.	.	.
8D	4A	.	4f
8DD	.	.	.
=42	=42	=42	=42
4GG	4G	1r	4b 4f
4r	2.r	.	16ee
.	.	.	16gg
.	.	.	16ee
.	.	.	16gg
[2GG	.	.	16ee
.	.	.	16ff
.	.	.	16ee
.	.	.	16ff
.	.	.	16dd
.	.	.	16ff
.	.	.	16dd
.	.	.	16ff
=43	=43	=43	=43
1GG_	1r	1r	16dd
.	.	.	16ee
.	.	.	16dd
.	.	.	16ee
.	.	.	16ee
.	.	.	16ccc
.	.	.	16ee
.	.	.	16ccc
.	.	.	16dd
.	.	.	16ccc
.	.	.	16dd
.	.	.	16ccc
.	.	.	16gg
.	.	.	16bb
.	.	.	16gg
.	.	.	16bb
=44	=44	=44	=44
1GG_	1r	1r	16gg
.	.	.	16aa
.	.	.	16gg
.	.	.	16aa
.	.	.	16a
.	.	.	16ff
.	.	.	16a
.	.	.	16ff
.	.	.	16g
.	.	.	16ff
.	.	.	16g
.	.	.	16ff
.	.	.	16cc
.	.	.	16ee
.	.	.	16cc
.	.	.	16ee
=45	=45	=45	=45
1GG_	1r	1r	16cc
.	.	.	16dd
.	.	.	16cc
.	.	.	16dd
.	.	.	16b
.	.	.	16gg
.	.	.	16b
.	.	.	16gg
.	.	.	16a
.	.	.	16gg
.	.	.	16a
.	.	.	16gg
.	.	.	16a
.	.	.	16ff
.	.	.	16a
.	.	.	16ff
=46	=46	=46	=46
1GG_	4G	4b	4ff
.	4G	2cc	4ee
.	4G	.	4dd
.	4G	[4b	4dd
=47	=47	=47	=47
1GG_	4G	4b]	4cc
.	4G	2a	4cc
.	4G	.	4b
.	4G	[4g	4b
=48	=48	=48	=48
1GG_	4G	4g]	4a
.	4G	2f	4a
.	4G	.	4b
.	4G	4f	[4dd
=49	=49	=49	=49
1GG]	4G	4e	4dd]
.	4G	4e-	2cc
.	4G	4d	.
.	4G	4f	4b
=50	=50	=50	=50
1C	1c	1e	1cc 1ee
==	==	==	==
*-	*-	*-	*-
!!!RWG: This file only contains pitch and duration data.
!!!RWG: Transposing instruments are not transposed.
!!!RWG: Durations of rests and tied notes may be interpreted.
!!!RWG: Key is interpreted using the Humdrum key tool.
!!!SCA: 
!!!YOR: 
!!!AGN: violin
!!!AFT: stage1
!!!ENC: F. Bennion
!!!END: 1997/04/15
!!!AST: baroque
!!!YEC: Copyright 1994, Center for Computer Assisted Research in the Humanities
!!!YEM: Rights to all derivative electronic formats reserved.
!!!YEM: Refer to licensing agreement for further details.
!!!YEN: United States of America
!!!EED: W.B. Hewlett
!!!KEY: 2009489923
!!!EMD: Converted from MuseData to Humdrum Aug 9, 1999, by Bret Aarden using muse2kern.
!!!VTS: 2083633743
